src/icons/magic-network-monitoring.svg

<svg xmlns="http://www.w3.org/2000/svg" viewBox="0 0 100 101"><path fill-rule="evenodd" clip-rule="evenodd" d="M59.2414 55.4692L88.5392 82.1049L84.654 86.4219L55.3705 59.7862C50.3487 64.2764 43.7976 66.6726 37.0638 66.4822C30.3299 66.2919 23.9247 63.5294 19.1645 58.7626C14.4044 53.9958 11.6509 47.5867 11.47 40.8525C11.289 34.1184 13.6944 27.5708 18.1916 22.5552C22.6889 17.5397 28.9365 14.4372 35.6505 13.8854C42.3644 13.3337 49.0347 15.3746 54.2904 19.5887C59.5461 23.8028 62.9881 29.87 63.9089 36.5434C64.8298 43.2167 63.1595 49.9892 59.2414 55.4692ZM24.9068 55.9033C28.6151 58.915 33.2536 60.5467 38.0307 60.5201C43.4793 60.4975 48.6962 58.3135 52.5357 54.4476C55.6304 51.3406 57.6475 47.3362 58.3109 43.0218H49.8466L45.348 53.7738L40.0368 53.7708L32.58 35.8921L30.3367 41.2539L27.6817 43.0211H17.5201C17.5707 43.35 17.6293 43.6783 17.696 44.0057C18.6499 48.6867 21.1984 52.8917 24.9068 55.9033ZM17.4475 37.2651C17.7599 34.8248 18.5084 32.4419 19.676 30.2351C21.9102 26.0124 25.5402 22.6957 29.9468 20.8509C34.3534 19.0061 39.2637 18.7473 43.8398 20.1188C48.4159 21.4904 52.3744 24.4071 55.0399 28.3716C56.843 31.0532 57.9788 34.1019 58.3838 37.2658H47.931L45.276 39.033L43.0326 44.3948L35.5758 26.5161L30.2646 26.5131L25.7661 37.2651H17.4475Z"/></svg>

<svg xmlns="http://www.w3.org/2000/svg" viewBox="0 0 100 101"><path fill-rule="evenodd" d="M59.241 55.47 88.54 82.104l-3.885 4.317-29.283-26.636a26.348 26.348 0 1 1 3.87-4.317m-34.334.433A20.64 20.64 0 0 0 38.03 60.52a20.56 20.56 0 0 0 14.505-6.072 20.64 20.64 0 0 0 5.775-11.426h-8.464l-4.499 10.752-5.311-.003-7.457-17.879-2.243 5.362-2.655 1.767H17.52q.076.493.176.985a20.63 20.63 0 0 0 7.21 11.897m-7.46-18.638a20.63 20.63 0 0 1 12.5-16.414 20.636 20.636 0 0 1 28.437 16.415H47.93l-2.655 1.767-2.243 5.362-7.457-17.879-5.311-.003-4.499 10.752z" clip-rule="evenodd"/></svg>
